X: 48
T: The Steamboat
O: c.1830
M: 4/4
L: 1/8
R: Hornpipe
B: George Spencer manuscript (Leeds, 1831)
B: Kerr's Merry Melodies Book 1 (Glasgow c1883)
B: MacDonald – Skye Collection (1887)
K: G
(3def \
| "G"g2bg d2gd | "G"BcdB G2AB | "C"c2ec "Am"A2cA | "D7"FGAB cdef | "G"g2bg d2gd |
"G"BcdB G2AB | "C"cedc "D7"BAGF | "G"A2G2 G2 :: Bc | "G"dBdB g2gf | "C"ecec "A7"a2ag |
"D7"fefd "G"gfgb | "A7"agfe "D7"d2 (3def | "G"g2bg d2gd | "G"BcdB G2AB | "C"cedc "D7"BAGF | "G"A2G2 G2 |]

%%sep 2 1 500

